Newaita-dark/apps/32/com.github.harisvsulaiman.pushy.svg

<svg height="32pt" viewBox="0 0 32 32" width="32pt" xmlns="http://www.w3.org/2000/svg" xmlns:xlink="http://www.w3.org/1999/xlink"><linearGradient id="a"><stop offset="0" stop-opacity=".313725"/><stop offset=".222222" stop-opacity=".27451"/><stop offset="1" stop-opacity="0"/></linearGradient><radialGradient id="b" cx="450.90894" cy="189.57936" gradientTransform="matrix(.00000017 -.0781325 -.140638 -.0000001 44.523152 63.595332)" gradientUnits="userSpaceOnUse" r="21.166656" xlink:href="#a"/><radialGradient id="c" cx="450.90894" cy="189.57936" gradientTransform="matrix(-.00000017 .0781325 .140638 .0000001 -12.770121 -7.527481)" gradientUnits="userSpaceOnUse" r="21.166656" xlink:href="#a"/><radialGradient id="d" cx="450.90894" cy="189.57936" gradientTransform="matrix(-.00000017 -.0781325 .140638 -.0000001 -12.770121 63.595332)" gradientUnits="userSpaceOnUse" r="21.166656" xlink:href="#a"/><radialGradient id="e" cx="450.90894" cy="189.57936" gradientTransform="matrix(.00000017 .0781325 -.140638 .0000001 44.52315 -7.527482)" gradientUnits="userSpaceOnUse" r="21.166656" xlink:href="#a"/><linearGradient id="f" gradientTransform="matrix(.0133601 0 0 .062506 12.465386 13.438784)" gradientUnits="userSpaceOnUse" x1="255.32306" x2="255.32304" y1="233.5" y2="254.66666"><stop offset="0" stop-opacity=".27451"/><stop offset="1" stop-opacity="0"/></linearGradient><linearGradient id="g"><stop offset="0" stop-color="#81c784"/><stop offset="1" stop-color="#66bb6a"/></linearGradient><linearGradient id="h" gradientUnits="userSpaceOnUse" x1="254" x2="254" xlink:href="#g" y1="-168.66667" y2="233.5"/><linearGradient id="i" gradientUnits="userSpaceOnUse" x1="15.8765258" x2="15.8765258" xlink:href="#g" y1="8.18827514604" y2="22.74176195"/><radialGradient id="j" cx="15.876524" cy="15.46501849994" gradientUnits="userSpaceOnUse" r="7.27673974996"><stop offset="0" stop-color="#fff" stop-opacity=".196078"/><stop offset="1" stop-color="#cbcbcb" stop-opacity="0"/></radialGradient><path d="m18.191406 28.035156h2.648438v-1.324218h-2.648438zm0 0" fill="url(#b)"/><path d="m13.5625 28.035156h-2.648438v1.320313h2.648438zm0 0" fill="url(#c)"/><path d="m13.5625 28.035156h-2.648438v-1.324218h2.648438zm0 0" fill="url(#d)"/><path d="m18.191406 28.035156h2.648438v1.320313h-2.648438zm0 0" fill="url(#e)"/><path d="m13.5625 27.703125h4.628906v1.652344h-4.628906zm0 0" fill="url(#f)"/><path d="m253.975747-168.691922c111.051895 0 201.105795 90.0539 201.105795 201.105795s-90.0539 201.105796-201.105795 201.105796c-111.051896 0-201.043302-90.053901-201.043302-201.105796s89.991406-201.105795 201.043302-201.105795zm0 0" fill="url(#h)" stroke="#333" stroke-linecap="round" stroke-width="3" transform="matrix(.062506 0 0 .062506 0 13.438783)"/><path d="m15.875 28.035156c-6.960938 0-12.566406-5.605468-12.566406-12.570312 0-.039063 0-.082032 0-.121094.066406 6.902344 5.644531 12.445312 12.566406 12.445312s12.503906-5.542968 12.570312-12.445312v.121094c0 6.964844-5.605468 12.570312-12.570312 12.570312zm0 0" fill-opacity=".196078"/><path d="m15.875 2.894531c-6.960938 0-12.566406 5.605469-12.566406 12.570313v.125c.066406-6.90625 5.644531-12.449219 12.566406-12.449219s12.503906 5.542969 12.570312 12.449219c0-.042969 0-.082032 0-.125 0-6.964844-5.605468-12.570313-12.570312-12.570313zm0 0" fill="#fff" fill-opacity=".392157"/><path d="m15.875 2.800781c-7.011719 0-12.660156 5.652344-12.660156 12.664063 0 7.011718 5.648437 12.664062 12.660156 12.664062 7.015625 0 12.664062-5.652344 12.664062-12.664062 0-7.011719-5.648437-12.664063-12.664062-12.664063zm0 .1875c6.914062 0 12.476562 5.5625 12.476562 12.476563 0 6.914062-5.5625 12.476562-12.476562 12.476562-6.910156 0-12.472656-5.5625-12.472656-12.476562 0-6.914063 5.5625-12.476563 12.472656-12.476563zm0 0" fill="#212121"/><path d="m15.875 4.878906c5.847656 0 10.585938 4.742188 10.585938 10.585938 0 5.847656-4.738282 10.585937-10.585938 10.585937-5.84375 0-10.582031-4.738281-10.582031-10.585937 0-5.84375 4.738281-10.585938 10.582031-10.585938zm0 0" fill="#e0e0e0"/><path d="m15.875 8.1875c4.019531 0 7.277344 3.257812 7.277344 7.277344 0 4.019531-3.257813 7.277344-7.277344 7.277344-4.015625 0-7.273438-3.257813-7.273438-7.277344 0-4.019532 3.257813-7.277344 7.273438-7.277344zm0 0" fill="url(#i)"/><path d="m15.875 8.269531c-3.574219 0-6.535156 2.558594-7.15625 5.949219.707031-3.28125 3.613281-5.730469 7.113281-5.730469 4.03125 0 7.277344 3.246094 7.277344 7.277344 0 .453125-.039063.898437-.121094 1.328125.109375-.496094.164063-1.015625.164063-1.546875 0-4.03125-3.246094-7.277344-7.277344-7.277344zm0 0" fill="#fff" fill-opacity=".392157"/><path d="m8.605469 15.796875c-.003907.109375-.003907.21875-.003907.328125 0 4.03125 3.242188 7.277344 7.273438 7.277344s7.277344-3.246094 7.277344-7.277344c0-.109375 0-.21875-.007813-.328125-.171875 3.875-3.347656 6.945313-7.269531 6.945313-3.917969 0-7.097656-3.070313-7.269531-6.945313zm0 0" fill-opacity=".235294"/><path d="m253.975747-84.012509c64.306359 0 116.426381 52.120023 116.426381 116.426382s-52.120022 116.426382-116.426381 116.426382c-64.243865 0-116.363888-52.120023-116.363888-116.426382s52.120023-116.426382 116.363888-116.426382zm0 0" fill="none" stroke="#212121" stroke-linecap="round" stroke-width="3" transform="matrix(.062506 0 0 .062506 0 13.438783)"/><path d="m15.875 8.1875c4.019531 0 7.277344 3.257812 7.277344 7.277344 0 4.019531-3.257813 7.277344-7.277344 7.277344-4.015625 0-7.273438-3.257813-7.273438-7.277344 0-4.019532 3.257813-7.277344 7.273438-7.277344zm0 0" fill="url(#j)"/><path d="m15.875 4.878906c-5.863281 0-10.582031 4.722656-10.582031 10.585938v.164062c.089843-5.785156 4.773437-10.417968 10.582031-10.417968s10.496094 4.632812 10.585938 10.417968c0-.054687 0-.109375 0-.164062 0-5.863282-4.71875-10.585938-10.585938-10.585938zm0 0" fill="#fff" fill-opacity=".992157"/><path d="m5.292969 15.726562v.203126c0 5.863281 4.71875 10.585937 10.582031 10.585937 5.867188 0 10.585938-4.722656 10.585938-10.585937 0-.066407 0-.136719-.003907-.203126-.109375 5.765626-4.785156 10.375-10.582031 10.375-5.792969 0-10.46875-4.609374-10.582031-10.375zm0 0" fill-opacity=".235294"/><path d="m253.975747-136.944954c93.553566 0 169.358827 75.867755 169.358827 169.358827 0 93.553566-75.805261 169.358827-169.358827 169.358827-93.491073 0-169.296333-75.805261-169.296333-169.358827 0-93.491072 75.80526-169.358827 169.296333-169.358827zm0 0" fill="none" stroke="#212121" stroke-linecap="round" stroke-width="3" transform="matrix(.062506 0 0 .062506 0 13.438783)"/></svg>

<?xml version="1.0" encoding="UTF-8"?>
<svg xmlns="http://www.w3.org/2000/svg" xmlns:xlink="http://www.w3.org/1999/xlink" width="32pt" height="32pt" viewBox="0 0 32 32" version="1.1">
<defs>
<radialGradient id="radial0" gradientUnits="userSpaceOnUse" cx="450.90894" cy="189.57936" fx="450.90894" fy="189.57936" r="21.166656" gradientTransform="matrix(0.00000017417,-0.0781325,-0.140638,-0.000000101539,44.523152,63.595332)">
<stop offset="0" style="stop-color:rgb(0%,0%,0%);stop-opacity:0.313725;"/>
<stop offset="0.222222" style="stop-color:rgb(0%,0%,0%);stop-opacity:0.27451;"/>
<stop offset="1" style="stop-color:rgb(0%,0%,0%);stop-opacity:0;"/>
</radialGradient>
<radialGradient id="radial1" gradientUnits="userSpaceOnUse" cx="450.90894" cy="189.57936" fx="450.90894" fy="189.57936" r="21.166656" gradientTransform="matrix(-0.00000017417,0.0781325,0.140638,0.000000101539,-12.770121,-7.527481)">
<stop offset="0" style="stop-color:rgb(0%,0%,0%);stop-opacity:0.313725;"/>
<stop offset="0.222222" style="stop-color:rgb(0%,0%,0%);stop-opacity:0.27451;"/>
<stop offset="1" style="stop-color:rgb(0%,0%,0%);stop-opacity:0;"/>
</radialGradient>
<radialGradient id="radial2" gradientUnits="userSpaceOnUse" cx="450.90894" cy="189.57936" fx="450.90894" fy="189.57936" r="21.166656" gradientTransform="matrix(-0.00000017417,-0.0781325,0.140638,-0.000000101539,-12.770121,63.595332)">
<stop offset="0" style="stop-color:rgb(0%,0%,0%);stop-opacity:0.313725;"/>
<stop offset="0.222222" style="stop-color:rgb(0%,0%,0%);stop-opacity:0.27451;"/>
<stop offset="1" style="stop-color:rgb(0%,0%,0%);stop-opacity:0;"/>
</radialGradient>
<radialGradient id="radial3" gradientUnits="userSpaceOnUse" cx="450.90894" cy="189.57936" fx="450.90894" fy="189.57936" r="21.166656" gradientTransform="matrix(0.00000017417,0.0781325,-0.140638,0.000000101539,44.52315,-7.527482)">
<stop offset="0" style="stop-color:rgb(0%,0%,0%);stop-opacity:0.313725;"/>
<stop offset="0.222222" style="stop-color:rgb(0%,0%,0%);stop-opacity:0.27451;"/>
<stop offset="1" style="stop-color:rgb(0%,0%,0%);stop-opacity:0;"/>
</radialGradient>
<linearGradient id="linear0" gradientUnits="userSpaceOnUse" x1="255.32306" y1="233.5" x2="255.32304" y2="254.66666" gradientTransform="matrix(0.0133601,0,0,0.062506,12.465386,13.438784)">
<stop offset="0" style="stop-color:rgb(0%,0%,0%);stop-opacity:0.27451;"/>
<stop offset="1" style="stop-color:rgb(0%,0%,0%);stop-opacity:0;"/>
</linearGradient>
<linearGradient id="linear1" gradientUnits="userSpaceOnUse" x1="254" y1="-168.66667" x2="254" y2="233.5" >
<stop offset="0" style="stop-color:rgb(50.588235%,78.039216%,51.764706%);stop-opacity:1;"/>
<stop offset="1" style="stop-color:rgb(40%,73.333333%,41.568627%);stop-opacity:1;"/>
</linearGradient>
<linearGradient id="linear2" gradientUnits="userSpaceOnUse" x1="254" y1="-168.66667" x2="254" y2="233.5" gradientTransform="matrix(0.0361877,0,0,0.0361877,6.68485,14.291934)">
<stop offset="0" style="stop-color:rgb(50.588235%,78.039216%,51.764706%);stop-opacity:1;"/>
<stop offset="1" style="stop-color:rgb(40%,73.333333%,41.568627%);stop-opacity:1;"/>
</linearGradient>
<radialGradient id="radial4" gradientUnits="userSpaceOnUse" cx="254" cy="32.416656" fx="254" fy="32.416656" r="116.41666" gradientTransform="matrix(0.062506,0,0,0.062506,0,13.438783)">
<stop offset="0" style="stop-color:rgb(100%,100%,100%);stop-opacity:0.196078;"/>
<stop offset="1" style="stop-color:rgb(79.607843%,79.607843%,79.607843%);stop-opacity:0;"/>
</radialGradient>
</defs>
<g id="surface1">
<path style=" stroke:none;fill-rule:nonzero;fill:url(#radial0);" d="M 18.191406 28.035156 L 20.839844 28.035156 L 20.839844 26.710938 L 18.191406 26.710938 Z M 18.191406 28.035156 "/>
<path style=" stroke:none;fill-rule:nonzero;fill:url(#radial1);" d="M 13.5625 28.035156 L 10.914062 28.035156 L 10.914062 29.355469 L 13.5625 29.355469 Z M 13.5625 28.035156 "/>
<path style=" stroke:none;fill-rule:nonzero;fill:url(#radial2);" d="M 13.5625 28.035156 L 10.914062 28.035156 L 10.914062 26.710938 L 13.5625 26.710938 Z M 13.5625 28.035156 "/>
<path style=" stroke:none;fill-rule:nonzero;fill:url(#radial3);" d="M 18.191406 28.035156 L 20.839844 28.035156 L 20.839844 29.355469 L 18.191406 29.355469 Z M 18.191406 28.035156 "/>
<path style=" stroke:none;fill-rule:nonzero;fill:url(#linear0);" d="M 13.5625 27.703125 L 18.191406 27.703125 L 18.191406 29.355469 L 13.5625 29.355469 Z M 13.5625 27.703125 "/>
<path style="fill-rule:nonzero;fill:url(#linear1);stroke-width:3;stroke-linecap:round;stroke-linejoin:miter;stroke:rgb(20%,20%,20%);stroke-opacity:1;stroke-miterlimit:4;" d="M 253.975747 -168.691922 C 365.027642 -168.691922 455.081542 -78.638022 455.081542 32.413873 C 455.081542 143.465768 365.027642 233.519669 253.975747 233.519669 C 142.923851 233.519669 52.932445 143.465768 52.932445 32.413873 C 52.932445 -78.638022 142.923851 -168.691922 253.975747 -168.691922 Z M 253.975747 -168.691922 " transform="matrix(0.062506,0,0,0.062506,0,13.438783)"/>
<path style=" stroke:none;fill-rule:nonzero;fill:rgb(0%,0%,0%);fill-opacity:0.196078;" d="M 15.875 28.035156 C 8.914062 28.035156 3.308594 22.429688 3.308594 15.464844 C 3.308594 15.425781 3.308594 15.382812 3.308594 15.34375 C 3.375 22.246094 8.953125 27.789062 15.875 27.789062 C 22.796875 27.789062 28.378906 22.246094 28.445312 15.34375 C 28.445312 15.382812 28.445312 15.425781 28.445312 15.464844 C 28.445312 22.429688 22.839844 28.035156 15.875 28.035156 Z M 15.875 28.035156 "/>
<path style=" stroke:none;fill-rule:nonzero;fill:rgb(100%,100%,100%);fill-opacity:0.392157;" d="M 15.875 2.894531 C 8.914062 2.894531 3.308594 8.5 3.308594 15.464844 C 3.308594 15.507812 3.308594 15.546875 3.308594 15.589844 C 3.375 8.683594 8.953125 3.140625 15.875 3.140625 C 22.796875 3.140625 28.378906 8.683594 28.445312 15.589844 C 28.445312 15.546875 28.445312 15.507812 28.445312 15.464844 C 28.445312 8.5 22.839844 2.894531 15.875 2.894531 Z M 15.875 2.894531 "/>
<path style=" stroke:none;fill-rule:nonzero;fill:rgb(12.941176%,12.941176%,12.941176%);fill-opacity:1;" d="M 15.875 2.800781 C 8.863281 2.800781 3.214844 8.453125 3.214844 15.464844 C 3.214844 22.476562 8.863281 28.128906 15.875 28.128906 C 22.890625 28.128906 28.539062 22.476562 28.539062 15.464844 C 28.539062 8.453125 22.890625 2.800781 15.875 2.800781 Z M 15.875 2.988281 C 22.789062 2.988281 28.351562 8.550781 28.351562 15.464844 C 28.351562 22.378906 22.789062 27.941406 15.875 27.941406 C 8.964844 27.941406 3.402344 22.378906 3.402344 15.464844 C 3.402344 8.550781 8.964844 2.988281 15.875 2.988281 Z M 15.875 2.988281 "/>
<path style=" stroke:none;fill-rule:nonzero;fill:rgb(87.843137%,87.843137%,87.843137%);fill-opacity:1;" d="M 15.875 4.878906 C 21.722656 4.878906 26.460938 9.621094 26.460938 15.464844 C 26.460938 21.3125 21.722656 26.050781 15.875 26.050781 C 10.03125 26.050781 5.292969 21.3125 5.292969 15.464844 C 5.292969 9.621094 10.03125 4.878906 15.875 4.878906 Z M 15.875 4.878906 "/>
<path style=" stroke:none;fill-rule:nonzero;fill:url(#linear2);" d="M 15.875 8.1875 C 19.894531 8.1875 23.152344 11.445312 23.152344 15.464844 C 23.152344 19.484375 19.894531 22.742188 15.875 22.742188 C 11.859375 22.742188 8.601562 19.484375 8.601562 15.464844 C 8.601562 11.445312 11.859375 8.1875 15.875 8.1875 Z M 15.875 8.1875 "/>
<path style=" stroke:none;fill-rule:nonzero;fill:rgb(100%,100%,100%);fill-opacity:0.392157;" d="M 15.875 8.269531 C 12.300781 8.269531 9.339844 10.828125 8.71875 14.21875 C 9.425781 10.9375 12.332031 8.488281 15.832031 8.488281 C 19.863281 8.488281 23.109375 11.734375 23.109375 15.765625 C 23.109375 16.21875 23.070312 16.664062 22.988281 17.09375 C 23.097656 16.597656 23.152344 16.078125 23.152344 15.546875 C 23.152344 11.515625 19.90625 8.269531 15.875 8.269531 Z M 15.875 8.269531 "/>
<path style=" stroke:none;fill-rule:nonzero;fill:rgb(0%,0%,0%);fill-opacity:0.235294;" d="M 8.605469 15.796875 C 8.601562 15.90625 8.601562 16.015625 8.601562 16.125 C 8.601562 20.15625 11.84375 23.402344 15.875 23.402344 C 19.90625 23.402344 23.152344 20.15625 23.152344 16.125 C 23.152344 16.015625 23.152344 15.90625 23.144531 15.796875 C 22.972656 19.671875 19.796875 22.742188 15.875 22.742188 C 11.957031 22.742188 8.777344 19.671875 8.605469 15.796875 Z M 8.605469 15.796875 "/>
<path style="fill:none;stroke-width:3;stroke-linecap:round;stroke-linejoin:miter;stroke:rgb(12.941176%,12.941176%,12.941176%);stroke-opacity:1;stroke-miterlimit:4;" d="M 253.975747 -84.012509 C 318.282106 -84.012509 370.402128 -31.892486 370.402128 32.413873 C 370.402128 96.720232 318.282106 148.840255 253.975747 148.840255 C 189.731882 148.840255 137.611859 96.720232 137.611859 32.413873 C 137.611859 -31.892486 189.731882 -84.012509 253.975747 -84.012509 Z M 253.975747 -84.012509 " transform="matrix(0.062506,0,0,0.062506,0,13.438783)"/>
<path style=" stroke:none;fill-rule:nonzero;fill:url(#radial4);" d="M 15.875 8.1875 C 19.894531 8.1875 23.152344 11.445312 23.152344 15.464844 C 23.152344 19.484375 19.894531 22.742188 15.875 22.742188 C 11.859375 22.742188 8.601562 19.484375 8.601562 15.464844 C 8.601562 11.445312 11.859375 8.1875 15.875 8.1875 Z M 15.875 8.1875 "/>
<path style=" stroke:none;fill-rule:nonzero;fill:rgb(100%,100%,100%);fill-opacity:0.992157;" d="M 15.875 4.878906 C 10.011719 4.878906 5.292969 9.601562 5.292969 15.464844 C 5.292969 15.519531 5.292969 15.574219 5.292969 15.628906 C 5.382812 9.84375 10.066406 5.210938 15.875 5.210938 C 21.683594 5.210938 26.371094 9.84375 26.460938 15.628906 C 26.460938 15.574219 26.460938 15.519531 26.460938 15.464844 C 26.460938 9.601562 21.742188 4.878906 15.875 4.878906 Z M 15.875 4.878906 "/>
<path style=" stroke:none;fill-rule:nonzero;fill:rgb(0%,0%,0%);fill-opacity:0.235294;" d="M 5.292969 15.726562 C 5.292969 15.792969 5.292969 15.863281 5.292969 15.929688 C 5.292969 21.792969 10.011719 26.515625 15.875 26.515625 C 21.742188 26.515625 26.460938 21.792969 26.460938 15.929688 C 26.460938 15.863281 26.460938 15.792969 26.457031 15.726562 C 26.347656 21.492188 21.671875 26.101562 15.875 26.101562 C 10.082031 26.101562 5.40625 21.492188 5.292969 15.726562 Z M 5.292969 15.726562 "/>
<path style="fill:none;stroke-width:3;stroke-linecap:round;stroke-linejoin:miter;stroke:rgb(12.941176%,12.941176%,12.941176%);stroke-opacity:1;stroke-miterlimit:4;" d="M 253.975747 -136.944954 C 347.529313 -136.944954 423.334574 -61.077199 423.334574 32.413873 C 423.334574 125.967439 347.529313 201.7727 253.975747 201.7727 C 160.484674 201.7727 84.679414 125.967439 84.679414 32.413873 C 84.679414 -61.077199 160.484674 -136.944954 253.975747 -136.944954 Z M 253.975747 -136.944954 " transform="matrix(0.062506,0,0,0.062506,0,13.438783)"/>
</g>
</svg>
